src/images/icons/warning-filled.svg

<svg xmlns="http://www.w3.org/2000/svg" width="16" height="16" fill="none"><path fill="#00112C" d="M15.3501 11.5301L9.9501 2.21008C9.7501 1.87008 9.4701 1.58008 9.1301 1.38008C8.4401 0.980078 7.5601 0.980078 6.8801 1.38008C6.5401 1.58008 6.2501 1.86008 6.0601 2.20008L0.650097 11.5301C0.450097 11.8701 0.350098 12.2601 0.350098 12.6601C0.350098 13.0601 0.450097 13.4501 0.650097 13.7801C0.850097 14.1201 1.1301 14.4101 1.4701 14.6001C1.8101 14.8001 2.2001 14.9001 2.6001 14.9001H13.4001C13.7901 14.9001 14.1801 14.8001 14.5201 14.6001C14.8601 14.4001 15.1501 14.1201 15.3501 13.7801C15.5501 13.4401 15.6501 13.0501 15.6501 12.6501C15.6501 12.2501 15.5501 11.8601 15.3501 11.5201V11.5301ZM7.2501 4.58008H8.7501V9.08008H7.2501V4.58008ZM8.9201 11.7101C8.8401 11.8901 8.7201 12.0501 8.5501 12.1601C8.3801 12.2701 8.1901 12.3301 7.9901 12.3301C7.7201 12.3301 7.4701 12.2301 7.2801 12.0401C7.0901 11.8501 6.9901 11.6001 6.9901 11.3301C6.9901 11.1301 7.0501 10.9401 7.1601 10.7801C7.2701 10.6201 7.4201 10.4901 7.6101 10.4101C7.7901 10.3301 7.9901 10.3201 8.1901 10.3501C8.3901 10.3901 8.5601 10.4801 8.7001 10.6201C8.8401 10.7601 8.9301 10.9401 8.9701 11.1301C9.0101 11.3201 8.9901 11.5201 8.9101 11.7101H8.9201Z"/></svg>

<svg xmlns="http://www.w3.org/2000/svg" fill="none" viewBox="0 0 16 16"><path fill="currentColor" d="m15.35 11.53-5.4-9.32q-.3-.52-.82-.83a2.26 2.26 0 0 0-3.07.82L.65 11.53a2.2 2.2 0 0 0 0 2.25A2.2 2.2 0 0 0 2.6 14.9h10.8q.6 0 1.12-.3t.83-.82.3-1.13-.3-1.13zm-8.1-6.95h1.5v4.5h-1.5zm1.67 7.13a1 1 0 0 1-.93.62.99.99 0 0 1-.83-1.55q.17-.24.45-.37.28-.11.58-.06a1 1 0 0 1 .78.78q.06.29-.06.58z"/></svg>
